!!!!SEGMENT: 050-1a-Sm-003.krn
!!!COM: Chopin, Fryderyk
!!!OTL: Mazurka No. 3
!!!OPS: Op. 50
!!!PTL: 3 Mazurkas
!!!PPR: M. Schlesinger
!!!PPP: Paris
!!!AFR: mazurka
!!!NIFC-rismID: 1001069103
!!!NIFC-shelfmark: PL-Wbfc 6621/n
!!!OMD: Moderato.
**kern	**kern	**fing	**dynam
*part1	*part1	*	*part1
*staff2	*staff1	*	*
*clefF4	*clefG2	*	*
*k[f#c#g#d#]	*k[f#c#g#d#]	*	*
*c#:	*c#:	*	*
*M3/4	*M3/4	*	*
*	*	*	*
4r	(>[>4gg#^<	.	.
!	!LO:TX:b:B:t= M. V.	!	!
.	.	.	.
=1	=1	=1	=1
2.r	4gg#]	.	.
.	8gg#L	.	.
.	8bb	.	.
.	8aa	.	.
.	8gg#J	.	.
=2	=2	=2	=2
*	*^	*	*
4r	8ff##X\L	2ryy	.	.
.	8dd#J	.	.	.
4r	4.gg#	.	.	.
*clefG2	*	*	*	*
(<[<4g#^	.	4b#X	.	.
.	8ff#X	.	.	.
*	*v	*v	*	*
=3	=3	=3	=3
4g#]	2.ee 2.cc#	.	.
8g#L	.	.	.
8b	.	.	.
8a	.	.	.
8g#J	.	.	.
=4	=4	=4	=4
*^	*^	*	*
8f##XL	2ryy	2.dd#	4cc#	.	.
8d#J	.	.	.	.	.
4.g#	.	.	2b#X	.	.
.	4G#	.	.	.	.
8f#X	.	.	.	.	.
*v	*v	*	*	*	*
*	*v	*v	*	*
!!LO:LB:g=original
=5	=5	=5	=5
4e 4c#)	4cc#)	.	.
4r	&(>8dd#L	.	.
.	8ff#	.	.
4r	8ee	.	.
.	8dd#J	.	.
=6	=6	=6	=6
*	*^	*	*
4r	8cc#/L	2ryy	.	.
.	8a#XJ	.	.	.
4r	4.dd#	.	.	.
*clefF4	*	*	*	*
N(>[>4d#^<	.	4f##X	.	.
.	8cc#	.	.	.
*	*v	*v	*	*
=7	=7	=7	=7
4d#]	2.b 2.g#	.	.
8d#L	.	.	.
8f#	.	.	.
8e	.	.	.
8d#J	.	.	.
=8	=8	=8	=8
*^	*^	*	*
8c#\L	2ryy	2.a#X	4g#	.	.
8A#XJ	.	.	.	.	.
4.d#	.	.	2f##X	.	<
.	4D#	.	.	.	.
8c#	.	.	.	.	[
*v	*v	*	*	*	*
*	*v	*v	*	*
=9	=9	=9	=9
*ped	*	*	*
!	!LO:S:s=1:note:problem:note-level slur	!	!
4GG#'\	(>8b#/L&) 8f#/ 8B#X</N)	.	.
.	8cc#	.	.
4r	8dd#	.	.
.	8ee	.	.
4r	8ff#	.	.
.	8gg#J	.	.
!!LO:LB:g=original
=10	=10	=10	=10
!	!LO:TUP:a	!	!
4r	12aaL	.	>
.	12bb	.	.
.	12aaJ	.	]
[>4f# 4B#X 4G#	8ff#L	.	.
.	8ee	.	.
*Xped	*	*	*
4f#] 4c# 4A	8dd#	.	.
.	8cc#J	.	.
=11	=11	=11	=11
*ped	*	*	*
4f# 4d# 4G#	8b#XL	.	.
.	8cc#	.	.
4GG#'	8dd#	.	.
.	8ee	.	.
4f#' 4B#X' 4G#'	8ff#	.	.
.	8gg#J	.	.
=12	=12	=12	=12
!	!LO:TUP:a	!	!
4r	12aaL	.	>
.	12bb	.	.
.	12aaJ	.	]
(4f# 4B#X 4G#	8ff#L	.	.
.	8ee	.	.
4f# 4c# 4A	8dd#	.	.
*Xped	*	*	*
.	8cc#J	.	.
=13	=13	=13	=13
*ped	*	*	*
4f#) 4B#X 4G#	8dd#/L	.	.
.	8g#J	.	.
4GG#'	4.gg#	.	.
(4B#X 4D#	.	.	.
.	8dd#	.	.
=14	=14	=14	=14
4f# 4G#	8gg#L	.	.
.	8dd#J	.	.
4B#X 4D#)	4.gg#	.	.
4GG#'	.	.	.
.	8g#	.	.
!!LO:LB:g=original
=15	=15	=15	=15
4GGG#'	8dd#/L	.	.
.	8g#J	.	.
4f# 4B#X 4G#	4.gg#	.	.
*Xped	*	*	*
.	.	.	.
4r	.	.	.
*ped	*	*	*
.	8g#	.	.
=16	=16	=16	=16
4CC#'	8dd#L	.	.
.	8eeJ	.	.
4e 4G# 4C#	4cc#)	.	.
*Xped	*	*	*
=17:|!	=17:|!	=17:|!	=17:|!
4r	4r	.	.
=18	=18	=18	=18
*ped	*	*	*
4AA\ 4AAA\	4A</	.	f
4.e 4.A 4.E	4.cc# 4.a 4.c#	.	>
8e 8A 8E	(<8c#	.	]
=19	=19	=19	=19
8eL 8A 8E	8cc#/L 8a/)	.	.
16r	16r	.	.
16eJk 16A 16E	16cc#Jk 16a	.	.
4e 4A 4E	4c#	.	.
4e 4A 4E	4cc#^ 4a^ 4c#^	.	.
=20	=20	=20	=20
*	*^	*	*
4AA\ 4AAA\	8A<'	4ryy	.	.
.	16r	.	.	.
.	16cc#/ 16a/	.	.	.
4e 4A 4E	12cc#L	4a^	.	.
.	12dd#	.	.	.
.	12cc#J	.	.	.
4r	8bL 8g#	4ryy	.	.
*Xped	*	*	*	*
.	8aJ 8f#	.	.	.
*	*v	*v	*	*
!!LO:LB:g=original
=21	=21	=21	=21
*ped	*	*	*
8EE	8bL 8g#	.	.
8r	16r	.	.
.	(<16bJk 16g#	.	.
4B 4E	4g#' 4e)	.	.
*Xped	*	*	*
4B 4E	4ee^ 4g#^ 4e^	.	.
=22	=22	=22	=22
*ped	*	*	*
4FF# 4FFF#	4A</	.	.
4.c# 4.F# 4.C#	4.a^ 4.f#^ 4.A^	.	.
8c# 8F# 8C#	(<8A	.	.
=23	=23	=23	=23
8c#L 8F# 8C#	8aL 8f#)	.	.
16r	16r	.	.
16c#Jk 16F# 16C#	16aJk 16f#	.	.
4c# 4F# 4C#	4A	.	.
4c# 4F# 4C#	(<4a^ 4f#^ 4A^	.	.
=24	=24	=24	=24
*	*^	*	*
4FF# 4FFF#	8A)	4ryy	.	.
.	16r	.	.	.
.	(>16a 16f#	.	.	.
4c# 4F# 4C#	12aL	4f#	.	.
.	12b	.	.	.
.	12aJ	.	.	.
4r	8g#L 8e	4ryy	.	.
*Xped	*	*	*	*
.	8f#J 8d#)	.	.	.
*	*v	*v	*	*
=25	=25	=25	=25
*ped	*	*	*
8CC#'	8g#L 8e	.	.
8r	16r	.	.
.	>16g#Jk 16e	.	.
4G# 4C#	4e 4c#	.	.
*Xped	*	*	*
4C#	(>4cc#^ 4c#^	.	.
!!LO:LB:g=original
=26	=26	=26	=26
*	*^	*	*
8DD#L	2b#X	2.f##X 2.c#	.	p
(>8D#	.	.	.	.
8E#X	.	.	.	.
8F##X	.	.	.	.
8G#	4a#X)	.	.	.
8A#XJ	.	.	.	.
*	*v	*v	*	*
=27	=27	=27	=27
8B#XL	4d#	.	.
8G#	.	.	.
8D#	4r	.	]
8e#XJ	.	.	.
4d#)	(>4b#X 4g#	.	.
=28	=28	=28	=28
*	*^	*	*
(8DD#L	2dd# 2b#X	2.f##X 2.c#	.	.
8D#	.	.	.	.
8E#X	.	.	.	.
8F##X	.	.	.	.
8G#	4cc# 4a#X	.	.	.
8A#XJ	.	.	.	.
*	*v	*v	*	*
=29	=29	=29	=29
8B#XL	2b#X 2g#	.	.
8G#	.	.	.
8D#	.	.	.
8qqF##X/	.	.	.
8E#XJ	.	.	.
4D#)	4cc# 4g# 4e#X	.	.
=30	=30	=30	=30
(>8DD#L	2b#X 2f##X 2d#	.	.
8D#	.	.	.
!	!	!	!LO:HP:b=2
8E#X	.	.	<
8F##X	.	.	.
8G#	4a#X 4e#X 4c#	.	.
8A#XJ)	.	.	.
!!LO:PB:g=original
=31	=31	=31	=31
8B#XL	4d#)	.	.
8G#	.	.	.
8D#	4r	.	.
8d#J	.	.	.
*ped	*	*	*
[>4g#	[>4dd# 4b#X	.	[
=32	=32	=32	=32
(>8g#L]	4dd#] 4cc#	.	.
*Xped	*	*	*
8f##X	.	.	.
8D#	4r	.	.
8e#XJ	.	.	.
4d#	[>4dd# (<4f##X	.	.
=33	=33	=33	=33
8c#L	4dd#/] 4g#/)	.	.
8B#X	.	.	.
8GG#	4r	.	.
8A#XJ	.	.	.
!	!LO:S:s=1:note:problem:note-level slur	!	!
[>4G#^<	(>4dd# 4b#X 4d#	.	.
=34	=34	=34	=34
4G#]	2.ee 2.cc# 2.e	.	.
8G#L	.	.	.
8B	.	.	.
8A	.	.	.
8G#J	.	.	.
=35	=35	=35	=35
*^	*^	*	*
*	*	*	*^	*	*
8F##XL	4r	8dd#L	4a#X	2.d#\	.	.
8D#J	.	8cc#J	.	.	.	.
4.G#	4r	4b#X	[<2g#	.	.	.
.	4GG#	4dd#	.	.	.	.
8F##)	.	.	.	.	.	.
!!LO:LB:g=original
=36	=36	=36	=36	=36	=36	=36
4E	2.GG#	8dd#L	4g#]	(<4c#\	.	.
.	.	8g#J	.	.	.	.
4D#	.	4g#	[<2g#	8d#\L	.	.
.	.	.	.	8f#\	.	.
8C#L	.	8cc#L	.	8e\	.	.
8D#J	.	8b#XJ	.	8d#\J	.	.
*	*	*	*v	*v	*	*
=37	=37	=37	=37	=37	=37
*	*^	*	*	*	*
8c#L	4E	2.GG#\	8a#XL	4g#]	.	.
8A#XJ	.	.	8cc#J	.	.	.
4.d#	2D#	.	4a#	2f##X	.	.
.	.	.	4b#X	.	.	.
8c#	.	.	.	.	.	.
*v	*v	*v	*	*	*	*
*	*v	*v	*	*
=38	=38	=38	=38
!	!LO:S:s=2:note:problem:note-level slur	!	!
4GG#/	4g#) 4B#<X)	.	.
4r	8g#\L	.	.
.	8bn	.	.
4r	8an	.	.
.	8g#J	.	.
=39	=39	=39	=39
8f##>XL	(>2cc#/ 2a#X/	.	.
8d#>J	.	.	.
4.g#>\	.	.	.
.	4dd#/ 4b#X/	.	.
8f#>X\	.	.	.
*clefG2	*	*	*
=40	=40	=40	=40
*	*^	*	*
!LO:TX:a:t=P:problem:łuk kończy się skierowany w górę	!	!	!	!
[<2.e 2.G#	2.gg#	4cc#	.	.
.	.	8dd#L	.	.
.	.	8ff#	.	.
.	.	8ee	.	.
.	.	8dd#J	.	.
!!LO:LB:g=original
=41	=41	=41	=41	=41
*^	*	*	*	*
4e]	2.G#	2.aa#X 2.ff##X	8cc#L	.	.
.	.	.	8a#XJ	.	.
4d#	.	.	4.dd#	.	.
4a#X	.	.	.	.	.
.	.	.	8cc#	.	.
*v	*v	*	*	*	*
*	*v	*v	*	*
=42	=42	=42	=42
.	8qb#X/	.	.
*ped	*	*	*
[<2.d# [<2.G#	8bb#XL	.	.
.	8aa#XJ	.	pp
.	4gg#	.	.
.	4dd#	.	.
=43	=43	=43	=43
2d#] 2G#]	8b#XL	.	.
.	8g#J	.	.
.	4dd#	.	.
4r	4gg#	.	.
=44	=44	=44	=44
2.r	8bb#XL	.	.
.	8aa#XJ	.	.
.	4gg#	.	.
.	4dd#	.	.
=45	=45	=45	=45
2.r	8b#XL	.	<
.	8g#J	.	.
.	4dd#	.	.
*Xped	*	*	*
.	4gg#	.	[
*clefF4	*	*	*
!!LO:LB:g=original
=46||	=46||	=46||	=46||
*ped	*	*	*
4BB	8dd#L	.	p
.	8cc#J	.	.
4d# 4F#	4b	.	.
*Xped	*	*	*
4e 4B 4G#	4g#	.	.
=47	=47	=47	=47
*ped	*	*	*
4BB	8f#L	.	.
.	8d#J	.	.
4B 4F#	4f#	.	.
4d# 4B 4F#	4b	.	.
=48	=48	=48	=48
4BB	8dd#L	.	.
.	8cc#J	.	.
4d# 4F#	4b/	.	.
*Xped	*	*	*
4e 4B 4G#	4g#	.	.
=49	=49	=49	=49
*ped	*	*	*
4BB	8f#L	.	.
.	8d#J	.	.
4B 4F#	4f#	.	.
*Xped	*	*	*
4d# 4B 4F#	4b/	.	.
=50	=50	=50	=50
*ped	*	*	*
4C#	8dd#L	.	.
.	8cc#J	.	.
4e#X 4B	4b/	.	.
*Xped	*	*	*
4e# 4B	4g#	.	.
=51	=51	=51	=51
*ped	*	*	*
4FF#	8f#L	.	.
.	8c#J	.	.
4A#X	4f#	.	.
4A# 4C#	4a#X	.	.
*Xped	*	*	*
.	.	.	.
!!LO:LB:g=original
=52	=52	=52	=52
*ped	*	*	*
4CC#	8dd#L	.	.
.	8cc#J	.	.
4e#X 4B	4b	.	.
4e# 4B	4g#	.	.
*Xped	*	*	*
.	.	.	.
=53	=53	=53	=53
*ped	*	*	*
4FF#	8f#L	.	.
.	8c#J	.	.
4en 4A#X 4F#	4f#	.	.
4e 4F#	4a#X	.	.
*Xped	*	*	*
.	.	.	.
=54	=54	=54	=54
*ped	*	*	*
4BB	8dd#L	.	.
.	8cc#J	.	.
4d# 4F#	4b	.	.
4e 4B 4G#	4g#	.	.
*Xped	*	*	*
.	.	.	.
=55	=55	=55	=55
*ped	*	*	*
4BB	8f#L	.	.
.	8d#J	.	.
4B 4F#	4f#	.	.
4d# 4B 4F#	4b/	.	.
*Xped	*	*	*
.	.	.	.
=56	=56	=56	=56
*ped	*	*	*
4BB	8dd#L	.	.
.	8cc#J	.	.
4d# 4F#	4b	.	.
4e 4B 4G#	4g#	.	.
*Xped	*	*	*
.	.	.	.
=57	=57	=57	=57
*ped	*	*	*
4BB	8f#L	.	.
.	8d#J	.	.
4B 4F#	4f#	.	.
4d# 4B 4F#	4b/	.	.
*Xped	*	*	*
.	.	.	.
!!LO:LB:g=original
=58	=58	=58	=58
*ped	*	*	*
4GG#	8dd#L	.	.
.	8cc#J	.	.
4B 4G# 4D#	4b	.	.
*Xped	*	*	*
4c# 4G# 4E	4g#	.	.
=59	=59	=59	=59
*ped	*	*	*
4GG#	8d#L	.	.
.	8BJ	.	.
4B 4G# 4D#	4g#	.	.
4B 4G# 4D#	4b/	.	.
=60	=60	=60	=60
4GG#	8dd#L	.	.
.	8cc#J	.	.
4B 4G# 4D#	4b	.	.
*Xped	*	*	*
4c# 4G# 4E	4g#	.	.
=61	=61	=61	=61
*ped	*	*	*
4GG#	8d#L	.	.
.	8BJ	.	.
4B 4G# 4D#	4g#	.	.
*Xped	*	*	*
4GG#	4b/)	.	.
=62	=62	=62	=62
*ped	*	*	*
!	!LO:TX:b:t=sostenuto.	!	!
4FF#	(>2.cc#	.	<
4e 4A#X 4F#	.	.	.
4e 4A# 4F#	.	.	.
*Xped	*	*	*
.	.	.	.
=63	=63	=63	=63
*ped	*	*	*
4BBB	2dd#	.	[
4any 4d# 4B 4An	.	.	.
4r	8.cc#L	.	.
.	16dd#Jk	.	.
!!LO:PB:g=original
=64	=64	=64	=64
4BB	8cc#L	.	.
.	8bJ	.	.
4a 4d# 4B 4A	4.gg#	.	.
4a 4d# 4B 4A	.	.	.
*Xped	*	*	*
.	8ff#	.	.
=65	=65	=65	=65
*ped	*	*	*
(<4EE	8ff#L	.	.
.	8ffnJ	.	.
4g# 4B 4G#	2ee	.	.
4FF#	.	.	.
*Xped	*	*	*
.	.	.	.
=66	=66	=66	=66
*ped	*	*	*
4GG#)	8dd#L	.	.
.	8cc#J	.	.
[>4f# 4d# 4G#	4b#X	.	.
*Xped	*	*	*
.	.	.	.
4f#] 4B#X 4G#	8cc#L	.	.
.	8dd#J	.	.
=67	=67	=67	=67
4r	2g#	.	.
*ped	*	*	*
(>4e 4c# 4G#	.	.	.
*Xped	*	*	*
4C#)	4cc#	.	.
=68	=68	=68	=68
4r	8dd#L	.	.
.	8cc#J	.	.
[>4f# 4d# 4G#	4b#X	.	.
4f#] 4B#X 4G#	8cc#L	.	.
.	8dd#J	.	.
=69	=69	=69	=69
*ped	*	*	*
4C#	2ff#	.	.
4e 4c# 4G#	.	.	.
4e 4c# 4G#	4ee)	.	.
*Xped	*	*	*
.	.	.	.
!!LO:LB:g=original
=70	=70	=70	=70
4r	(>4g#	.	.
4e 4c# 4G#	2b/	.	.
4e 4c# 4Gn	.	.	.
=71	=71	=71	=71
4r	8a#XL	.	.
.	8bJ	.	.
(>4e 4A#X 4F#	4cc#	.	.
[>4e [>4B [<4F#	8g#L	.	.
.	8a#J	.	.
=72	=72	=72	=72
4e] 4B] 4F#]	2f#	.	.
4e 4c# 4F#	.	.	.
)4e 4G# 4F#	4b/	.	.
=73	=73	=73	=73
4r	8a#XL	.	.
.	8bJ	.	.
[>4e 4A#X 4F#	4cc#	.	.
4e] 4B 4F#	8g#L	.	.
.	8a#J	.	.
=74	=74	=74	=74
4r	8f#L	.	>
.	8dd#J	.	.
(>4e 4A#X 4F#	4cc#	.	.
4e 4B 4F#	8g#L	.	.
.	8a#XJ	.	.
=75	=75	=75	=75
4e 4A#X 4F#	8f#L	.	.
.	8dd#	.	.
4e 4A# 4F#	8cc#	.	.
.	8g#	.	.
4e 4B 4F#	8a#X	.	.
.	8g#J	.	]
!!LO:LB:g=original
=76	=76	=76	=76
*ped	*	*	*
4e 4A#X 4F#	8f#L	.	.
.	8dd#J	.	.
4e 4A# 4F#)	4cc#/	.	.
4r	4f#	.	<
=77	=77	=77	=77
4FF#	4.gg#	.	[
4a#X 4e	.	.	.
.	8ff#L	.	>
4r	8ffn	.	.
*Xped	*	*	*
.	8eeJ	.	]
=78	=78	=78	=78
*ped	*	*	*
4BB	8dd#L	.	.
.	8cc#J	.	.
4d# 4F#	4b	.	.
4e 4B 4G#	4g#	.	]
*Xped	*	*	*
.	.	.	.
=79	=79	=79	=79
*ped	*	*	*
4BB	8f#L	.	.
.	8d#J	.	.
4B 4F#	4f#	.	.
4d# 4F#	4b/	.	.
*Xped	*	*	*
.	.	.	.
=80	=80	=80	=80
*ped	*	*	*
4BB	8dd#L	.	.
.	8cc#J	.	.
4d# 4F#	4b	.	.
4e 4B 4G#	4g#	.	.
*Xped	*	*	*
.	.	.	.
=81	=81	=81	=81
*ped	*	*	*
4BB	8f#L	.	.
.	8d#J	.	.
4B 4F#	4f#	.	.
4d# 4B 4F#	4b/	.	.
*Xped	*	*	*
.	.	.	.
!!LO:LB:g=original
=82	=82	=82	=82
*ped	*	*	*
4C#	8dd#L	.	.
.	8cc#J	.	.
4e#X 4B	4b	.	.
4e# 4B	4g#	.	.
*Xped	*	*	*
.	.	.	.
=83	=83	=83	=83
*ped	*	*	*
4FF#	8f#L	.	.
.	8c#J	.	.
4A#X	4f#	.	.
4A# 4C#	4a#X	.	.
*Xped	*	*	*
.	.	.	.
=84	=84	=84	=84
*ped	*	*	*
4CC#	8dd#L	.	.
.	8cc#J	.	.
4e#X 4B	4b	.	.
4e# 4B	4g#	.	.
*Xped	*	*	*
.	.	.	.
=85	=85	=85	=85
*ped	*	*	*
4FF#	8f#L	.	.
.	8c#J	.	.
4en 4A#X 4F#	4f#	.	.
4e 4F#	4a#X	.	.
*Xped	*	*	*
.	.	.	.
=86	=86	=86	=86
*ped	*	*	*
4BB	8dd#L	.	.
.	8cc#J	.	.
4d# 4F#	4b	.	.
4e 4B 4G#	8a#XL	.	.
*Xped	*	*	*
.	8g#J	.	.
=87	=87	=87	=87
*ped	*	*	*
4BB	8f#L	.	.
.	8d#J	.	.
4B 4F#	4f#	.	.
4d# 4B 4F#	4b/	.	.
*Xped	*	*	*
.	.	.	.
!!LO:LB:g=original
=88	=88	=88	=88
*ped	*	*	*
4BB	8dd#L	.	.
.	8cc#J	.	.
!	!LO:TUP:a	!	!
4d# 4F#	12bL	.	.
.	12cc#	.	.
.	12bJ	.	.
4e 4G#	8a#XL	.	.
*Xped	*	*	*
.	8g#J	.	.
=89	=89	=89	=89
*ped	*	*	*
4BB	8f#L	.	.
.	8d#J	.	.
4d# 4F#	4f#	.	.
4d# 4F#	4b/	.	.
*Xped	*	*	*
.	.	.	.
=90	=90	=90	=90
*ped	*	*	*
4GG#	8dd#L	.	f
.	8cc#J	.	.
4d# 4B#X 4G# 4D#	4b#X	.	.
4d# 4B# 4G# 4D#	4g#	.	.
=91	=91	=91	=91
4GG#	8d#L	.	.
.	8B#XJ	.	.
4d# 4G# 4D#	4g#	.	.
4d# 4G# 4D#	4b#X/	.	.
=92	=92	=92	=92
4GG#' 4GGG#'	8dd#L	.	<
.	8cc#J	.	.
4d# 4B#X 4G# 4D#	4.b#X	.	.
*clefG2	*	*	*
4g# 4B#X	.	.	.
.	8cc#	.	.
=93	=93	=93	=93
4b#X 4g# 4d#	8.ee#XL	.	[
.	16dd#Jk)	.	.
4r	[>2gg#;^<	.	.
*Xped	*	*	*
4r	.	.	.
!!LO:LB:g=original
=94	=94	=94	=94
2.r	(>4gg#]	.	.
.	8gg#L	.	p
.	8bb	.	.
.	8aa	.	.
.	8gg#J	.	.
=95	=95	=95	=95
*	*^	*	*
4r	8ff##X\L	2ryy	.	.
.	8dd#J	.	.	.
4r	4.gg#\	.	.	.
!	!	!	!	!LO:HP:b=2
(>[<4g#	.	4b#X	.	>
.	8ff##	.	.	.
*	*v	*v	*	*
=96	=96	=96	=96
4g#]	2.ee 2.cc#	.	]
8g#L	.	.	.
8b	.	.	.
8a	.	.	.
8g#J	.	.	.
=97	=97	=97	=97
*^	*^	*	*
8f##XL	2ryy	2.dd#	4cc#	.	.
8d#J	.	.	.	.	.
4.g#	.	.	2b#X	.	.
.	4G#	.	.	.	.
8f##	.	.	.	.	.
*v	*v	*	*	*	*
*	*v	*v	*	*
=98	=98	=98	=98
4e 4c#)	(>4cc#)	.	.
4r	8dd#L	.	.
.	8ff#	.	.
4r	8ee	.	.
.	8dd#J	.	.
=99	=99	=99	=99
*	*^	*	*
4r	8cc#/L	2ryy	.	.
.	8a#XJ	.	.	.
4r	4.dd#	.	.	.
*clefF4	*	*	*	*
[>4d#^<	.	4f##X	.	.
.	8cc#	.	.	.
*	*v	*v	*	*
!!LO:PB:g=original
=100	=100	=100	=100
!	!	!	!LO:HP:b=2
N(>4d#]	2.b [<2.g#	.	>
8d#L	.	.	]
8f#	.	.	.
8e	.	.	.
8d#J	.	.	.
=101	=101	=101	=101
*^	*^	*	*
8c#/L	2ryy	2.a#X	4g#]	.	.
8A#XJ	.	.	.	.	.
4.d#	.	.	2f##X	.	<
.	(>4D#	.	.	.	.
8c#	.	.	.	.	[
*v	*v	*	*	*	*
*	*v	*v	*	*
=102	=102	=102	=102
*ped	*	*	*
!	!LO:S:s=3:note:problem:note-level slur	!	!
4GG#'\)	8b#X/L 8f#/ 8B#</N)	.	.
.	8cc#	.	.
4r	8dd#	.	.
.	8ee	.	.
4r	8ff#	.	.
.	8gg#J	.	.
=103	=103	=103	=103
!	!LO:TUP:a	!	!
4r	12aaL	.	.
.	12bb	.	.
.	12aaJ	.	.
[>4f# 4B#X 4G#	8ff#L	.	.
.	8ee	.	.
4f#] 4c# 4A	8dd#	.	.
*Xped	*	*	*
.	8cc#J)	.	.
=104	=104	=104	=104
*ped	*	*	*
4f# 4d# 4G#	(>8b#XL	.	.
.	8cc#	.	.
4GG#'	8dd#	.	.
.	8ee	.	.
4f#' 4B#X 4G#	8ff#	.	.
*Xped	*	*	*
.	8gg#J	.	.
!!LO:LB:g=original
=105	=105	=105	=105
!	!LO:TUP:a	!	!
4r	12aaL	.	.
.	12bb	.	.
.	12aaJ	.	.
(>4f# 4B#X 4G#	8ff#L	.	.
.	8ee	.	.
4f# 4c# 4A	8dd#	.	.
.	8cc#J	.	.
=106	=106	=106	=106
4f#) 4B#X 4G#	8dd#L	.	.
.	8g#J	.	.
4GG#'	4.gg#	.	.
(>4B#X 4D#	.	.	.
.	8dd#	.	.
=107	=107	=107	=107
4f# 4G#	8gg#L	.	.
.	8dd#J	.	.
4B#X) 4D#	4.gg#	.	.
4GG#	.	.	.
.	8g#	.	.
=108	=108	=108	=108
4GGG#'	8dd#L	.	.
.	8g#J	.	.
4f# 4B#X 4G#	4.gg#	.	.
4r	.	.	.
.	8g#	.	.
=109	=109	=109	=109
*ped	*	*	*
4CC#'	8dd#L	.	.
.	8eeJ	.	.
4e 4G# 4C#	4cc#)	.	.
*Xped	*	*	*
4r	4r	.	.
=110	=110	=110	=110
*ped	*	*	*
4AA\ 4AAA\	4A</	.	f
4.e 4.A 4.E	4.cc# 4.a 4.c#	.	>
8e 8A 8E	8c#	.	]
!!LO:LB:g=original
=111	=111	=111	=111
8eL 8A 8E	8cc#/L 8a/	.	.
16r	16r	.	.
16eJk 16A 16E	(>16cc#Jk 16a	.	.
4e 4A 4E	4c#')	.	.
!	!LO:TX:b:t=P:problem:akcent pomiędzy systemami	!	!
!	!LO:S:s=1:note:problem:note-level slur	!	!
4e 4A 4E	(>4cc#^ 4a 4c#	.	.
=112	=112	=112	=112
*	*^	*	*
4AA\ 4AAA\	8A<')	4ryy	.	.
.	16r	.	.	.
.	(>/16cc# 16a/	.	.	.
!LO:TX:a:t=P:problem:akcent pomiędzy systemami	!	!	!	!
4e^ 4A 4E	12cc#L	4a	.	.
.	12dd#	.	.	.
.	12cc#J	.	.	.
4r	8bL 8g#	4ryy	.	.
*Xped	*	*	*	*
.	8aJ 8f#	.	.	.
*	*v	*v	*	*
=113	=113	=113	=113
*ped	*	*	*
4EE'	8bL 8g#)	.	.
.	16r	.	.
.	16bJk 16g#	.	.
4B 4E	4g# 4e	.	.
!	!LO:S:s=1:note:problem:note-level slur	!	!
4B 4E	(>4ee^ 4g#^ 4e^	.	.
*Xped	*	*	*
.	.	.	.
=114	=114	=114	=114
*ped	*	*	*
4FF#'\ 4FFF#'\	4A<'>/)	.	.
4.c# 4.F# 4.C#	4.a 4.f# 4.A	.	.
!LO:TX:a:t=P:problem:akcent pomiędzy systemami	!	!	!
8c#^> 8F#^> 8C#^>	(<8A	.	.
=115	=115	=115	=115
8c#L 8F# 8C#	8aL 8f#)	.	.
16r	16r	.	.
16c#Jk 16F# 16C#	(<16aJk 16f#	.	.
4c# 4F# 4C#	4A')	.	.
!	!LO:TX:t=P:problem:akcent pomiędzy systemami	!	!
4c# 4F# 4C#	4a^< 4f#^< 4A^<	.	.
!!LO:LB:g=original
=116	=116	=116	=116
*	*^	*	*
4FF#'</ 4FFF#'</	8A<	4ryy	.	.
.	16r	.	.	.
.	(>16a 16f#	.	.	.
!LO:TX:t=P:problem:diminuendolike accent:problem	!	!	!	!
4c#^< 4F#^< 4C#^<	12aL	4f#	.	>
.	12b	.	.	.
.	12aJ	.	.	]
4r	8g#L 8e	4ryy	.	.
*Xped	*	*	*	*
.	8f#J 8d#	.	.	.
*	*v	*v	*	*
=117	=117	=117	=117
*ped	*	*	*
4CC#'	8g#L 8e)	.	.
.	16r	.	.
.	(>16g#Jk 16e	.	.
4G# 4C#	4e 4c#)	.	.
!LO:TX:a:t=P:problem:akcent pomiędzy systemami	!	!	!
4C#^>	4cc# 4c#	.	.
*Xped	*	*	*
=118	=118	=118	=118
*	*^	*	*
(>8DD#L	(>2b#X	2.f##X 2.c#	.	p>
8D#	.	.	.	.
8E#X	.	.	.	.
8F##X	.	.	.	.
8G#	4a#X	.	.	.
8A#XJ	.	.	.	.
*	*v	*v	*	*
=119	=119	=119	=119
8B#XL	4d#)	.	]
8G#	.	.	.
8D#	4r	.	.
8e#XJ	.	.	.
4d#)	(>4b#X 4g#	.	.
=120	=120	=120	=120
*	*^	*	*
(8DD#L	2dd# 2b#X	2.f##X 2.c#	.	.
8D#	.	.	.	.
8E#X	.	.	.	.
8F##X	.	.	.	.
8G#	4cc# 4a#X	.	.	.
8A#XJ	.	.	.	.
*	*v	*v	*	*
!!LO:LB:g=original
=121	=121	=121	=121
8B#XL)	2b#X 2g# 2d#	.	.
8G#	.	.	.
8D#	.	.	.
8qF##/	.	.	.
8E#XJ	.	.	.
4D#	4cc# 4g# 4e#X	.	>
=122	=122	=122	=122
*	*	*	*^
!LO:TX:t=P:problem:od taktu 126 łuk znajduje się pod nutami	!	!	!	!
(>8DD#L	2b#X 2f##X 2d#	.	.	.
8D#	.	.	.	.
!	!	!	!	!LO:HP:b=2
8E#X	.	.	.	<
8F##X	.	.	.	.
8G#	4a#X 4e#X 4c#	.	.	.
8A#XJ	.	.	.	.
=123	=123	=123	=123	=123
8B#XL	4d#)	.	]	.
8G#	.	.	.	.
8D#	4r	.	.	.
8d#J	.	.	.	.
[4g#	(<[>4dd# 4b#X	.	.	[
*	*	*	*v	*v
=124	=124	=124	=124
8g#L]	4dd#] 4cc#)	.	.
8f##X	.	.	.
8D#	4r	.	.
8e#XJ	.	.	.
4d#	(<4dd# 4f##X	.	.
=125	=125	=125	=125
8c#L	4dd# 4g#)	.	.
8B#X	.	.	.
8GG#	4r	.	.
8A#XJ	.	.	.
!	!LO:S:s=1:note:problem:note-level slur	!	!
[>4G#	(>4dd# 4b#X 4d#	.	.
!!LO:LB:g=original
=126	=126	=126	=126
*	*^	*	*
4G#]	2.ee 2.cc#	2.e	.	.
8G#L	.	.	.	.
8B	.	.	.	.
8A	.	.	.	.
8G#J	.	.	.	.
=127	=127	=127	=127	=127
*^	*^	*	*	*
8F##XL	4r	8dd#L	4a#X	2.d#\	.	.
8D#J	.	8cc#J	.	.	.	.
4.G#	4r	4b#X	[<2g#	.	.	.
.	4GG#	4dd#	.	.	.	.
8F#X	.	.	.	.	.	.
=128	=128	=128	=128	=128	=128	=128
4E	[<2.GG#	8dd#L	4g#]	4c#\	.	.
.	.	8g#J	.	.	.	.
4D#	.	4g#	2g#	8d#\L	.	.
.	.	.	.	8f#\	.	.
8C#L	.	8cc#L	.	8e\	.	.
8D#J	.	(<8b#XJ	.	8d#\J	.	.
*	*	*	*v	*v	*	*
=129	=129	=129	=129	=129	=129
*	*^	*	*	*	*
8c#L	4E	2.GG#\]	8a#XL)	4g#	.	.
8A#XJ	.	.	8cc#J	.	.	.
4.d#	2D#	.	4a#	2f##X	.	.
.	.	.	4b#X	.	.	.
8c#	.	.	.	.	.	.
*v	*v	*v	*	*	*	*
*	*v	*v	*	*
=130	=130	=130	=130
4GG#)	4g# 4B#X	.	.
4r	8g#L	.	.
.	8bn	.	.
4r	8a	.	.
.	8g#J	.	.
!!LO:PB:g=original
=131	=131	=131	=131
(<8f##>X\L	2cc#/ 2a#X/	.	.
8d#>J	.	.	.
4.g#>\	.	.	.
.	4dd#/ 4b#X/	.	.
8f#>X\	.	.	.
*clefG2	*	*	*
=132	=132	=132	=132
*	*^	*	*
[<2.e [<2.G#)	2.gg#	(<4cc#	.	.
.	.	8dd#L	.	.
.	.	8ff#	.	.
.	.	8ee	.	.
.	.	8dd#J	.	.
=133	=133	=133	=133	=133
*^	*	*	*	*
(>4e]	2.G#]	2.aa#X 2.ff##X	8cc#L	.	.
.	.	.	8a#XJ	.	.
4d#	.	.	4.dd#	.	.
4a#X	.	.	.	.	.
.	.	.	8cc#	.	.
*v	*v	*	*	*	*
*	*v	*v	*	*
=134	=134	=134	=134
4d# 4G#)	8bb#XL 8b#X)	.	.
.	(>8cc#	.	.
4r	8dd#	.	.
.	8ee	.	.
4r	8ff#	.	.
.	8gg#J	.	.
=135	=135	=135	=135
*	*^	*	*
!	!	!LO:TUP:a	!	!
(>4e	4ryy	12aa^<L	.	.
.	.	12bb)	.	.
.	.	12aaJ	.	.
!LO:CL:ed	!	!	!	!
*clefF4	*	*	*	*
4f# 4B#X 4G#	4bb#X 4ff#	8bb# 8ff#L	.	<
.	.	8ee	.	.
!LO:TX:t=P:problem:brak początku ligatury	!	!	!	!
[4f# 4c# 4A)	4ccc# 4dd#	8ccc# 8dd#	.	.
.	.	8cc#J	.	[
*	*v	*v	*	*
!!LO:LB:g=original
=136	=136	=136	=136
*ped	*	*	*
4f#] 4d# 4G#	8b#XL	.	.
.	8ddd#	.	.
4GG#	8dd#	.	.
.	8ee	.	.
4f# 4B#X 4G#	8ff#	.	.
.	8gg#J	.	.
=137	=137	=137	=137
*	*^	*	*
!	!	!LO:TUP:a	!	!
4r	4ryy	12aa^<L	.	.
.	.	12bb	.	.
.	.	12aaJ	.	.
4f# 4B#X 4G#	4bb#X 4ff#	8bb# 8ff#L	.	.
.	.	8ee	.	.
(>4f# 4c# 4A	4ccc# 4dd#	8ccc# 8dd#	.	.
*Xped	*	*	*	*
.	.	8cc#J	.	.
*	*v	*v	*	*
=138	=138	=138	=138
*ped	*	*	*
4f# 4d# 4G#	8b#XL	.	.
.	8ddd#	.	.
4GG#	8dd#	.	.
.	8ee	.	.
4f# 4B#X 4G#)	8ff#	.	.
.	8gg#J	.	.
=139	=139	=139	=139
*	*^	*	*
!	!	!LO:TUP:a	!	!
4r	4ryy	12aa^<L	.	.
.	.	12bb	.	.
.	.	12aaJ	.	.
(>4f# 4B#X 4G#	4bb#X 4ff#	8bb# 8ff#L	.	.
.	.	8ee	.	.
4e 4c# 4G#)	4ccc# 4dd#	8ccc# 8dd#	.	.
*Xped	*	*	*	*
.	.	8cc#J	.	.
=140	=140	=140	=140	=140
*ped	*	*	*	*
!	!	!LO:TUP:a	!	!
4GG#	4ryy	12ee^<L	.	.
.	.	12ff#	.	.
.	.	12eeJ	.	.
4c# 4E	4gg# 4dd#	8gg# 8dd#L	.	.
.	.	8cc#	.	.
4c# 4E	4aa 4b	8aa 8b	.	.
*Xped	*	*	*	*
.	.	8aJ	.	.
!!LO:LB:g=original
=141	=141	=141	=141	=141
!	!	!LO:TUP:a	!	!
4r	4ryy	12cc#^<L	.	.
.	.	12dd#	.	.
.	.	12cc#J	.	.
*ped	*	*	*	*
4c# 4E	4dd# 4b	8dd# 8bL	.	.
.	.	8a	.	.
[>4A 4E	4ee 4e	8ee 8e	.	.
*Xped	*	*	*	*
.	.	[<8c#J)	.	.
*	*v	*v	*	*
=142	=142	=142	=142
*^	*	*	*
*ped	*	*	*	*
4A]	[2.GG#	(>8c#]	.	.
.	.	4B#X	.	<
4G# 4D#	.	.	.	.
.	.	8b#XL	.	.
[>4D#	.	8a#X	.	.
.	.	8b#J	.	.
*v	*v	*	*	*
=143	=143	=143	=143
4D#] 4GG#]	8a#XL	.	.
.	8g#J	.	.
4B#X 4D#	4.ee 4.e	.	[
4B# [>4D#	.	.	.
*Xped	*	*	*
.	8dd# 8d#	.	.
=144	=144	=144	=144
*^	*^	*	*
4D#]	2.GGn	4dd# 4d#	4ryy	.	>
8.EL	.	4cc#)	(<8.c#/L	.	]
16F#Jk	.	.	16d#Jk	.	.
[>4E	.	4ryy	[>4c#/	.	.
=145	=145	=145	=145	=145	=145
4E]	2.GGn	4c#]	4c#	.	.
8.EL	.	8.c#L	4A	.	.
16F#Jk	.	16d#Jk)	.	.	.
4E	.	4c# 4A	4ryy	.	.
!!LO:LB:g=original
=146	=146	=146	=146	=146	=146
*ped	*	*	*	*	*
4rF	2GGn	4r	4ryy	.	.
!	!	!LO:N:vis=2	!	!	!
4A 4E	.	(>8c#L	[<2c#	.	<
.	.	8cc#	.	.	.
[>4A/ [</4E	4ryy	8b	.	.	.
.	.	8cc#J	.	.	.
*v	*v	*	*	*	*
=147	=147	=147	=147	=147
4A] 4E]	8bL	4c#]	.	.
.	8aJ	.	.	.
4c# 4E	4.ff#/ 4.f#/	2ryy	.	[
4c# 4E	.	.	.	.
*Xped	*	*	*	*
.	8ee 8e	.	.	.
=148	=148	=148	=148	=148
*^	*	*	*	*
*ped	*	*	*	*	*
4FF#'	4ryy	4ee 4e	4ryy	.	>
4B#X 4A	8.F#L	4dd#	(<8.d#/L	.	]
.	16G#Jk	.	16eJk	4	.
4B# 4A	4F#	4ryy	4d#))	.	.
*Xped	*	*	*	*	*
.	.	.	.	.	.
*v	*v	*	*	*	*
=149	=149	=149	=149	=149
*ped	*	*	*	*
4EE'	4r	4ryy	.	.
8.EL	(>8.eL	4c# 4A	.	.
16D#Jk	16f#Jk	.	.	.
4E	4e)	4c# 4A	.	.
*Xped	*	*	*	*
.	.	.	.	.
=150	=150	=150	=150	=150
*ped	*	*	*	*
4DD#'	4r	4ryy	.	.
8AL	(>8f#L	4B#X	.	.
8Bn	8g#	.	.	.
*Xped	*	*	*	*
8.A	8.f# 8.B#X	4ryy	.	<
16D#Jk	16dd#Jk 16d#	.	.	[[
=151	=151	=151	=151	=151
*ped	*	*	*	*
!	!LO:S:s=1:note:problem:note-level slur	!	!	!
4F#	4dd# 4d#)	4ryy	.	fz
8.F#L	(>8.d#L	4B#X 4A	.	p
*Xped	*	*	*	*
16G#Jk	16eJk	.	.	.
4F#	4d#)	4B# 4A	.	.
!!LO:LB:g=original
=152	=152	=152	=152	=152
*ped	*	*	*	*
4BBB#X'	4r	4ryy	.	.
8AL	(>8f#L	4d#	.	.
8Bn	8g#	.	.	.
*Xped	*	*	*	*
8.A	8.f# 8.d#	4ryy	.	<
16BB#XJk	16dd#Jk 16d#	.	.	.
*	*v	*v	*	*
=153	=153	=153	=153
*^	*	*	*
*ped	*	*	*	*
4ryy	4F#	4dd# 4d#)	.	[fz
4A	8.F#\L	(<8.d#L	.	p
.	16G#Jk	16eJk	.	.
*Xped	*	*	*	*
4A	4F#	4d#)	.	.
*v	*v	*	*	*
=154	=154	=154	=154
*ped	*	*	*
4GGG#	4r	.	fz
8AL	(>8f#L	.	p
8B	8g#	.	.
8A	8f#	.	.
*Xped	*	*	*
8D#J	8B#XJ	.	.
=155	=155	=155	=155
8F#L	8d#L	.	.
8D#J	8B#XJ	.	.
4.G#	4.e	.	.
8F#	8d#	.	.
=156	=156	=156	=156
8EL	8c#L	.	.
8D#	8B#X	.	.
8E	8c#	.	.
8F#	8d#	.	.
8A	8f#	.	.
8G#J	8eJ	.	.
!!LO:LB:g=original
=157	=157	=157	=157
8F#L	8d#L	.	.
8E	8c#	.	.
8D#	8B#X	.	.
8F#	8d#	.	.
8E	8c#	.	.
8C#J	8A<J	.	.
=158	=158	=158	=158
4CC#/	4e 4c# 4G#<)	.	.
8GG#\L	4r	.	.
8BB	.	.	.
8AA	(>/[>4c#< 4E</	.	.
8GG#J	.	.	.
=159	=159	=159	=159
*^	*	*	*
!	!	!LO:S:s=1:note:problem:note-level slur	!	!
4ryy	4GGn	8c#] 8E#X<L	.	<
.	.	8dn 8BJ	.	.
4F#	4FF#	4.d#X	.	[
4A#X 4En	4FFF#/	.	.	.
.	.	8c#	.	.
*v	*v	*	*	*
=160	=160	=160	=160
*	*^	*	*
4BBB\	2ryy	4B</ 4D#</	.	.
8BB\L	.	2G#</)	.	.
8D#	.	.	.	.
8C#	(>4d#	.	.	<
8BBJ	.	.	.	.
=161	=161	=161	=161	=161
*^	*	*	*	*
!	!LO:TX:b:t=P:problem:diminuendolike accent	!	!	!	!
2Gn	2BB-X^	8eL	4ryy	.	.
.	.	8fnJ 8dn	.	.	.
.	.	4.f#X	2c#X	.	[
4G	4AA	.	.	.	.
.	.	8e	.	.	.
*	*	*v	*v	*	*
=162	=162	=162	=162	=162
8dnL 8F#	(<8DDnL	4f#	.	.
8BJ	8DnJ	.	.	.
4B-X	4D-X	4.gn	.	.
!	!	!LO:TX:t=cres _:problem:dynamics with extention lines 	!	!
!	!	!	!	!LO:HP:b:t=cres
4en>\	4Cn	.	.	<
.	.	8g#X	.	.
*v	*v	*	*	*
!!LO:PB:g=original
=163	=163	=163	=163
*	*^	*	*
!LO:TUP:b	!	!	!	!
12FnL	4a	8A<L	.	.
12Gn	.	.	.	.
.	.	8dn<J	.	.
12FJ	.	.	.	.
4E	4.a#X	4c#	.	.
4D#X	.	4f##X	.	.
.	8b	.	.	.
=164	=164	=164	=164	=164
!LO:TUP:a	!	!	!	!
12G#L	4b#X	8B#XL	.	.
12A#X	.	.	.	.
.	.	8e#XJ	.	.
12G#J	.	.	.	.
4Gn	4.cc#	4en	.	.
4F#	.	4a#X	.	.
.	8cc##X	.	.	.
=165	=165	=165	=165	=165
*	*	*^	*	*
!LO:TUP:a	!	!	!	!	!
12BL	4dd#	8d#L	4ryy	.	.
12c#	.	.	.	.	.
.	.	8g#J	.	.	.
12BJ	.	.	.	.	.
!	!	!LO:N:vis=2	!	!	!
4B-X	4.ee	8gn/L	2gn	.	.
.	.	8ccnJ	.	.	.
4A	.	4cc#	.	.	.
.	8ee#	.	.	.	.
*	*v	*v	*v	*	*
=166	=166	=166	=166
4DDn')	4ff# 4ddn) 4f#	.	[
8DnL	4r	.	.
8F#	.	.	p
8E	(>4f# 4A<	.	.
8DJ	.	.	.
=167	=167	=167	=167
*^	*	*	*
*	*	*^	*	*
8B-L	4D-	8gnL	8ryy	.	<
!	!	!	!LO:N:vis=4	!	!
8BnJ	.	8g#XJ	4.fn	.	.
4cn	4Cn	4.a	.	.	[
4CCn	4ryy	.	4en 4B-	.	.
.	.	8gn	.	.	.
*v	*v	*	*	*	*
!!LO:LB:g=original
=168	=168	=168	=168	=168
4FFn\	4fn 4A<)	4ryy	.	.
8FnL	4ryy	2dn	.	.
8A	.	.	.	.
8Gn	(>4a	.	.	.
8FJ	.	.	.	.
=169	=169	=169	=169	=169
*	*^	*	*	*
*	*	*	*	*	*^
!	!	!	!	!	!	!LO:HP:b=2
2E	8a#XL	4ryy	2c#\	.	<	>
.	8bJ 8g#	.	.	.	.	.
.	4.b#X	2f##X	.	.	[	]
4D#	.	.	4c#\	.	.	.
.	8a#X	.	.	.	.	.
*	*	*	*	*	*v	*v
*	*	*v	*v	*	*
=170	=170	=170	=170	=170
!	!LO:TX:t=cres _:problem:dynamics with extention lines 	!	!	!
!	!	!	!	!LO:HP:b:t=cres
(<8GG#\L	4b#X g#	8B#XL	.	<
8G#J	.	8e#XJ	.	.
4Gn	4.cc#	4en	.	.
4F#	.	4a#X	.	.
.	8cc##X	.	.	.
=171	=171	=171	=171	=171
!LO:TUP:a	!	!	!	!
12BL	4dd#	8d#L	.	.
12c#	.	.	.	.
.	.	8g#J	.	.
12BJ	.	.	.	.
4B-X	4.ee	4gn	.	.
4A	.	4cc#	.	.
.	8ee#X	.	.	.
=172	=172	=172	=172	=172
!LO:TUP:a	!	!	!	!
12dnL	4ff#	8f#L	.	.
12e	.	.	.	.
.	.	8bJ	.	.
12dJ	.	.	.	.
4c#	2ggn	4a#	.	.
*clefG2	*	*	*	*
!LO:TUP:b	!	!	!	!
12eL	.	4cc#	.	.
12f#	.	.	.	.
12eJ	.	.	.	.
!!LO:LB:g=original
=173	=173	=173	=173	=173
8d#L)	8ff#L	4b	.	.
16r	16r	.	.	.
(<16eJk	16gg#XJk	.	.	.
4f#	2aa	4dd# 4b#	.	.
4f##X	.	[>4cc#	.	[[
=174	=174	=174	=174	=174
2.g#)	4.gg#	2.ee^< 2.cc#]^<	.	f
.	8ff##XL	.	.	.
.	8gg#	.	.	.
.	8aaJ	.	.	.
=175	=175	=175	=175	=175
2.g# 2.f#	8gg#L	2.dd#^< 2.b#X^<	.	.
.	8ff##XJ	.	.	.
.	4gg#	.	.	.
.	4aa	.	.	.
=176	=176	=176	=176	=176
2.g# 2.e	4.gg#	2.cc#^<	.	.
.	8ff##XL	.	.	.
.	8gg#	.	.	.
.	8aaJ	.	.	.
=177	=177	=177	=177	=177
2.g# 2.d#	8gg#L	2.ff#^< 2.b#X^<	.	.
.	8ff##XJ	.	.	.
.	4gg#	.	.	.
.	4aa	.	.	.
!!LO:LB:g=original
=178	=178	=178	=178	=178
4g# 4e 4G#	4.gg#	4ee^< 4cc#^<	.	.
4r	.	2ryy	.	.
!	!LO:TX:t=dim&colon; _:problem:dynamics with extention lines 	!	!	!
!	!	!	!	!LO:HP:b:t=dim&colon;
.	8ff##XL	.	.	>
4r	8gg#	.	.	.
.	8eeJ	.	.	.
*	*v	*v	*	*
=179	=179	=179	=179
2.r	8dd#L	.	.
.	8cc#J	.	.
.	4ee	.	.
.	4b#X	.	.
=180	=180	=180	=180
2.r	4.dd#	.	.
.	8cc#L	.	.
.	8e	.	.
.	8aJ	.	]]
=181	=181	=181	=181
4r	8g#L	.	.
.	8G#J	.	.
4r	4e	.	.
*clefF4	*	*	*
4F# 4GG#	4d#	.	.
=182	=182	=182	=182
*^	*	*	*
4E	[<2.C#	[<2.c#	.	p
8G#L	.	.	.	.
8B	.	.	.	.
8A	.	.	.	.
8G#J	.	.	.	.
!!LO:LB:g=original
=183	=183	=183	=183	=183
*	*	*^	*	*
8F#L	<2.C#_<	4d#	4c#]	.	.
8D#J	.	.	.	.	.
4.G#	.	4d#	2B#X	.	.
.	.	4g#	.	.	.
8F#	.	.	.	.	.
=184	=184	=184	=184	=184	=184
4E	2.C#_<	2g#	[<2.c#	.	.
8G#L	.	.	.	.	.
8B	.	.	.	.	.
8A	.	8f#L	.	.	.
8G#J	.	8eJ	.	.	.
=185	=185	=185	=185	=185	=185
8F#L	2.C#]	4d#	4c#]	.	.
8D#J	.	.	.	.	.
4.G#	.	4d#	2B#X	.	.
.	.	4g#	.	.	.
8F#	.	.	.	.	.
*v	*v	*	*	*	*
=186	=186	=186	=186	=186
*ped	*	*	*	*
4GG#' 4CC#'	4.g#	[<2.c#	.	.
8G#L	.	.	.	.
8B	8d#L	.	.	.
8A	8f#	.	.	.
*Xped	*	*	*	*
8G#J	8eJ	.	.	.
=187	=187	=187	=187	=187
8F#L	4d#	4c#]	.	.
8D#J	.	.	.	.
4.G#	4d#	2B#X	.	.
.	4g#	.	.	.
8F#	.	.	.	.
!!LO:LB:g=original
=188	=188	=188	=188	=188
!	!LO:TX:b:t=slentando.	!	!	!
4E	8g#	[<2.c#	.	.
.	4.cc#	.	.	.
8G#L	.	.	.	.
8B	.	.	.	.
8A	8cc#L	.	.	.
8G#J	8eJ	.	.	.
=189	=189	=189	=189	=189
8F#L	4d#	4c#]	.	.
8D#J	.	.	.	.
4.G#	4d#	2B#X	.	.
.	4e	.	.	.
8G#	.	.	.	.
*	*v	*v	*	*
=190	=190	=190	=190
4GG#\ 4CC#\	8c#^< 8G#<^<L	.	.
.	8g#J	.	.
4r	4.cc#	.	.
4r	.	.	.
.	8g#	.	.
=191	=191	=191	=191
2.r	8cc#L	.	.
.	8g#J	.	.
.	4.cc#	.	.
.	8c#	.	.
=192	=192	=192	=192
4r	8g#L	.	.
.	8c#J	.	.
4r	4cc#)	.	.
8r	8r	.	.
16r	16r	.	ff
16GG#/ 16GGG#/	16g#'> 16G#<'>	.	.
=193	=193	=193	=193
4GG#/ 4GGG#/	4g#'> 4G#<'>	.	]
4C# 4CC#	4c#'>	.	.
4r	4r	.	.
!LO:TX:b:B:t=Fin.	!	!	!
.	.	.	.
==	==	==	==
*-	*-	*-	*-
!!title: @{OTL}; @{OPS} @{ONM} publisher: @{PPR}
!!!RDF**kern: > = above
!!!RDF**kern: < = below
!!!RDF**kern: N = linked
!!!RDF**dynam: < = "cres", fontstyle="normal"
!!!ENC: Zofia Trojan
!!!END: 2018-06-13
!!!EED: Mateusz Mrugas
!!!EST: revision finished [data korekty 2018-06-14]
!!!EED2: Jacek Iwaszko
!!!EST2: revision finished 2018-11-05
!!!EED3: Mateusz Mrugas
!!!EST3: revision finished 2019-05-18
!!!rism-genre: Mazurka
!!!rism-key: C-sharp minor
!!!rism-opus: op. 50, no. 3
!!!rism-title: Mazurka in C-sharp minor op. 50, no. 3
!!!rism-permalink: https://opac.rism.info/search?id=1001069103&View=rism
!!!rism-773a-OPR: 1001069100
!!!rism-parent-permalink: https://opac.rism.info/search?id=1001069100&View=rism
